svg/fluentui-system-icons/ic_fluent_book_number_16_filled.svg

<svg width="16" height="16" viewBox="0 0 16 16" fill="none" xmlns="http://www.w3.org/2000/svg">
<path d="M8.59808 5.99534L8.37383 6.99997H7.40326L7.6257 5.99534H8.59808ZM5 1H11C12.1046 1 13 1.89543 13 3V12.4969C13 12.7731 12.7761 12.9969 12.5 12.9969H4V13C4 13.5523 4.44772 14 5 14H12.5C12.7761 14 13 14.2239 13 14.5C13 14.7761 12.7761 15 12.5 15H5C3.89543 15 3 14.1046 3 13V3C3 1.89543 3.89543 1 5 1ZM7.98764 4.36064C8.04733 4.09102 7.87716 3.82407 7.60755 3.76437C7.33794 3.70468 7.07098 3.87485 7.01128 4.14446L6.82289 4.99534H6C5.72386 4.99534 5.5 5.21919 5.5 5.49534C5.5 5.77148 5.72386 5.99534 6 5.99534H6.60148L6.37904 6.99997H5.5C5.22386 6.99997 5 7.22383 5 7.49997C5 7.77612 5.22386 7.99997 5.5 7.99997H6.15763L6.01634 8.63809C5.95665 8.90771 6.12682 9.17466 6.39643 9.23436C6.66604 9.29405 6.933 9.12388 6.9927 8.85427L7.18185 7.99997H8.15061L8.00835 8.6373C7.94819 8.90681 8.1179 9.17406 8.38741 9.23422C8.65692 9.29438 8.92417 9.12467 8.98433 8.85516L9.17522 7.99997H10C10.2761 7.99997 10.5 7.77612 10.5 7.49997C10.5 7.22383 10.2761 6.99997 10 6.99997H9.39844L9.62269 5.99534H10.5C10.7761 5.99534 11 5.77148 11 5.49534C11 5.21919 10.7761 4.99534 10.5 4.99534H9.84591L9.98738 4.36153C10.0475 4.09202 9.87783 3.82477 9.60832 3.76461C9.33881 3.70445 9.07156 3.87416 9.0114 4.14367L8.8213 4.99534H7.84711L7.98764 4.36064Z" fill="#212121"/>
</svg>

<svg xmlns="http://www.w3.org/2000/svg" width="16" height="16"><path d="M8.598 5.995 8.374 7h-.97l.222-1.005h.972ZM5 1h6a2 2 0 0 1 2 2v9.497a.5.5 0 0 1-.5.5H4V13a1 1 0 0 0 1 1h7.5a.5.5 0 0 1 0 1H5a2 2 0 0 1-2-2V3a2 2 0 0 1 2-2Zm2.988 3.36a.5.5 0 0 0-.977-.216l-.188.851H6a.5.5 0 1 0 0 1h.601L6.38 7H5.5a.5.5 0 0 0 0 1h.658l-.142.638a.5.5 0 0 0 .977.216L7.182 8h.969l-.143.637a.5.5 0 1 0 .976.218L9.175 8H10a.5.5 0 0 0 0-1h-.602l.225-1.005h.877a.5.5 0 0 0 0-1h-.654l.141-.633a.5.5 0 0 0-.976-.218l-.19.851h-.974l.14-.634Z"/></svg>
